!!!OTL: "Weihnachten" UNS LEUCHTET HEUT DERFREUDE STERN
!!!ARE: Europa, Mitteleuropa, Deutschland, Niederrhein
!!!SCT: Z1124
!!!YEM: Copyright 1995, estate of Helmut Schaffrath.
**kern
*ICvox
*Ivox
*M6/8
*k[f#]
*G:
{8d
=1
4g
8a
8b
8a
8dd
=2
8cc#
8dd
8ee
8dd
8cc#}
{8dd
=3
8a
8b
8cc#
4dd}
{16b
16cc
=4
4dd
8ee
8dd
8cc
8b
=5
4cc
8dd
8b
8a}
{8g
=6
4a
8b
8cc
8b
8a
=7
4g
4.r}
{16b
16cc
=8
4dd
8ee
8dd
8cc
8b
=9
4cc
8dd
8b
8a}
{8g
=10
4a
8b
8cc
8b
8a
=11
4g
4.r}
==
!!!AGN: religioeses Lied, Weihnachts - Lied
!!!ONB: ESAC (Essen Associative Code) Database: ZUCCAL
!!!AMT: compound duple
!!!AIN: vox
!!!EED: Helmut Schaffrath
!!!EEV: 1.0
*-
